X: 31
T: Wake Every Breath
M: 3/4
K: F
L: 1/4
C: William Billings
F | (A3/4 B/4 A) G | (F3/4 G/4 A) B | (c3/4 B/4 A) G | F2
w: Wake ev - ' ry breath - - and ev - ' ry string,
F | F2 C | (D3/4 E/4 F) D | (C F) C | F2
w: to bless the great - - re- deem - er king.
c | c2 c | (A3/4 G/4 F) F | (A3/4 B/4 c) c | c2
w: His name through ev - ' ry clime - - a-dored,
F | (A3/4 B/4 c) c | (d c) (3F/G/A/ | (G F) (3E/F/G/ | (A3/4 G/4 F)
w: let joy - - and gra - ti - - tude - and - - love --
A | (c/ B/ A/ G/ F/) E/ | (F/ G/ A/ B/ c/) B/ | (A/ c/ F/ A/) (3G/F/E/ | F2
w: and Je - - - - sus found - - - - on ev - - - 'ry - - chord.

%% transpose 0
